X: 2109
T:Laride
M:2/2
L:1/8
Q:240
C:Breton
S:Blowzabella
K:Gm
G4 d4|c2 e2 d4|c3 d c2 A2|B2 c2 dcBA|!
G4 d4|c2 e2 d4|c3 d c2 A2|B2 A2 G4:|!
G4 B4|B2 G2 A4|A2 c2 c2 A2|B2 c2 dcBA|!
G4 B4|B2 G2 A4|A3 B c2 d2|B2 A2 G4:|!
